X:1
T:Ruhetag, CMD
T:Ruhetag, CMD
T:Frederick R. Daries, 1916
T:Public Domain Courtesy of the Cyber Hymnal™
C:Frederick R. Daries, 1916
Z:Public Domain
Z:Courtesy of the Cyber Hymnal™
%%score ( 1 2 ) ( 3 4 )
L:1/8
Q:1/4=115
M:4/4
K:G
V:1 treble 
V:2 treble 
V:3 bass 
V:4 bass 
V:1
 [Gd]2 | [GB]2 [Gc]2 [GB]2 [FA]2 | [FA]3 [FB] [DG]2 [B,D]2 | [CE]2 [EG]2 [DF]2 [CE]2 | %4
 [B,D]6 [Gd]2 | [GB]2 [Gc]2 [GB]2 [FA]2 | [FA]3 [FB] [EG]2 [EB]2 | [^CA]3 [CG] [CF]2 [CE]2 | %8
 D6 D2 | A3 z B [CA]2 EF | [B,G]2 [^A,E]2 [B,D]2 D2 | [CE]2 [CF]2 [^CG]2 FG | B4 A2 Bc | %13
 [Gd]3 [Ac] [GB]2 [GB]2 | [Gc]2 [Gd]2 [Ge]2 cA | [DG]3 [DG] GF EF | [B,G]6 |] %17
V:2
 x2 | x8 | x8 | x8 | x8 | x8 | x8 | x8 | D6 D2 | C2 (C2 x C2) x2 | x6 D2 | x6 ^C2 | D6 G2 | x8 | %14
 x6 E2 | x4 C2 C2 | x6 |] %17
V:3
 [G,B,]2 | [G,D]2 [G,E]2 [G,D]2 [D,C]2 | [D,C]3 [D,D] [G,B,]2 [G,,G,]2 | %3
 [C,G,]2 [C,G,]2 [C,G,]2 [E,G,]2 | G,6 [G,B,]2 | [G,D]2 [G,E]2 [G,D]2 [D,C]2 | %6
 [D,C]3 [D,D] [E,B,]2 [E,G,]2 | [A,,G,]3 [A,,B,] [A,,A,]2 [A,,G,]2 | [D,F,]6 [D,F,]2 | %9
 [D,F,]2 [D,F,]2 [D,F,]2 D,2 x | [G,,D,]2 [G,,^C,]2 [G,,D,]2 [B,,G,]2 | %11
 [C,G,]2 [A,,A,]2 [E,A,]2 [E,A,]2 | G,4 F,2 D2 | [B,D]3 [F,D] [G,D]2 [=F,D]2 | %14
 [E,C]2 [D,B,]2 [C,C]2 A,C | [D,B,]3 [D,B,] [D,A,]2 [D,A,]2 | [G,,G,]6 |] %17
V:4
 x2 | x8 | x8 | x8 | G,6 x2 | x8 | x8 | x8 | x8 | x6 D,2 x | x8 | x8 | D,6 G,A, | x8 | x6 C,2 | %15
 x8 | x6 |] %17

